X:17
T:Marr Hills Strathspey
C:Robert Petrie
S:Petrie's Collection of Strathspey Reels and Country Dances &c., 1790
Z:Steve Wyrick , 6/4/04
N:Petrie's First Collection, page 8
L:1/8
V:1 name = "violin"
V:2 name = "bass" clef=bass middle=d transpose=-24
M:C
R:Strathspey
K:G
[V:1] "^Slow"g|GB/c/ d>B e>g{e}d{c}B|G>Bd>B (e/d/c/B/) A>B|G>Bd>B eg/f/ g>d|(e/f/e/f/) (a/g/f/e/) dBB:|
[V:2]        z|G2    g2  c'2 g2     |b2 g2   c2        d2 |G2 g2  c'2   b2 | c'2        c2        g2g:|
[V:1] f|(g/f/g/a/) ge d>gdag<e dd|(g/f/g/a/) g>e d>eg>a|(g/f/g/a/) g<e d<BB:|
[V:2] z| b2        c'2b2 g2 |b2 c'2 g2 G2 |B2         c2  G2 B2 | G2        c2  G2 G:|
% The above code was written using Phil Taylor's BarFly abc reader/converter/player program.
% Other abc converters (e.g. abc2ps) may require everything after the word "bass" to be
% deleted in the V:2 header line for correct display of notes the bass clef, or require that
% the M: and K: fields be repeated directly under the V:1 header line to display the meter
% and key signature on both staffs.  Some abc MIDI players (e.g. abc2midi) will not play
% multiple-voiced abc code.  -SW
